src/icons/mobile.svg

<svg xmlns="http://www.w3.org/2000/svg" width="24" height="24" fill="none"><path fill="currentColor" d="M14 16h-4v2h4z"/><path fill="currentColor" fill-rule="evenodd" d="M5 2h14v20H5zm2 2h10v16H7z" clip-rule="evenodd"/></svg>

<svg width="24" height="24" viewBox="0 0 24 24" fill="none" xmlns="http://www.w3.org/2000/svg">
<path d="M14 16H10V18H14V16Z" fill="black"/>
<path fill-rule="evenodd" clip-rule="evenodd" d="M5 2H19V22H5V2ZM7 4H17V20H7V4Z" fill="black"/>
</svg>
